!!!OTL: Wenn ich mir ein Weibchen nehme (Band 1), S. 222
!!!id: P0854
**kern
*clefG2
*k[]
*G:
{16g
=1
16g
16d
16b
8g
8g
=2
16d
16b
8g
=3yy
16g}
=4
{16g
=5
*M3/8
16a
16b
8cc
8dd
=6
8b
16a}
=7
{16a
16a
16a
=8
8.ee
16cc
16cc
16a
=9
*M2/8
16g
16b
16cc
16dd}
=10
{16g
16g
=11
8a
8dd
=12
*M3/8
8g
8g}
8r
==
*-
!!!minrhy: 16
!!!meters: 2/8 3/8 ]  ZZ[4
!!!cut: Wenn ich mir ein Weibchen nehme (Band 1), S. 222
!!!reg: Lothringen
!!!trd: PINCK, Louis: Verklingende Weisen, Bd 1, Metz 1928
!!!rhy1:   XXX_X_  XXX_X
!!!rhy2: X  XXX_X_  X_X
!!!key: P0854  16  G 2/8 3/8 ]  ZZ[4
!!!mod: SECHSTONSKALA DUR ?]  AMBITUS[9
!!!kad: 1251
!!!akz: -5-5_23_61_21_
!!!fot: 'a__b__c__d__
!!!for: 'a__b__c__d__
!!!fok: '^a_^a_~a_^__
!! PHRAS[VORWIEGEND AUFTAKTIG]
!!!fkt: ???, Brautwerbung?
!! LOTH VKL
!! PR[30] 2K[7] 2G[9] 3K[5] 3G[5] 4A[5] 4Ü[0] 5A[2] 6K[0] 6G[0]
!! 7K[0] 7G[0] 8A[0] MEHR[0] SI[34] ABS[56] SR[16] SP[18]
!! ST[16] 2k[2] 2g[18] 3k[13] 3g[0] 4d[4] 4ü[0] 5d[0] 6k[0] 6g[0]
!! 7k[0] 7g[0] 8d[0] mehr[0] si[36] dm[-2] sr[20] sp[16]
!! 1F[10] 2F[75] 3F[11] 4F[0] LF[0] 2P[3] 3P[0] 4P[0] TRI[0] DF[4] AB[61]
!! TF[0] U3K[0] U3[0] U4[0] U4Ü[0] U5[12] U6K[0] U6[11] U7K[0] U7[11]
!! N1[14] N2K[0] N2[9] N3K[0] N3[18] N4[9] N4Ü[0] N5[16] N6K[0] N6[2]
!!!n7k: 0] N7[0] O1[0] O2K[0] O2[0] O3K[0] O3[0] HÖ[0
